app/component-library/components/Icons/Icon/assets/flag.svg

<svg width="24" height="24" viewBox="0 0 24 24" fill="none" xmlns="http://www.w3.org/2000/svg">
<path d="M15.4814 7.16L7.48145 3.7V2.75C7.48145 2.34 7.14145 2 6.73145 2C6.32145 2 5.98145 2.34 5.98145 2.75V21.25C5.98145 21.66 6.32145 22 6.73145 22C7.14145 22 7.48145 21.66 7.48145 21.25V17.29L15.7014 13.23C15.7014 13.23 15.7014 13.23 15.7114 13.23C17.3714 12.37 18.2614 11.26 18.2114 10.09C18.1614 8.92 17.1914 7.88 15.4814 7.16Z" fill="currentColor"/>
</svg>

<svg xmlns="http://www.w3.org/2000/svg" width="24" height="24" viewBox="0 0 24 24" fill="none"><path d="m15.481 7.16-8-3.46v-.95c0-.41-.34-.75-.75-.75s-.75.34-.75.75v18.5c0 .41.34.75.75.75s.75-.34.75-.75v-3.96l8.22-4.06h.01c1.66-.86 2.55-1.97 2.5-3.14-.05-1.17-1.02-2.21-2.73-2.93z" fill="currentColor"/></svg>
